X:5
T: Tücsök-lakodalom
O: Fogadjisten (Bukovina), Gáspár Ferencné (38) ,1914
Q: "Tempo guisto" 1/4=120
M: 2/4
L: 1/4
K: F
F/F/B/B/ | A/c/B | 
A/A/G/A/ | BF/z/ | 
F/F/B/B/ | A/c/ B | 
_A/A/G/F/ | G G/z/ | 

